assets/icons/24px/stroke/tabcells-24px.svg

<svg width="24" height="24" viewBox="0 0 24 24" fill="none" xmlns="http://www.w3.org/2000/svg">
<path fill-rule="evenodd" clip-rule="evenodd" d="M6.93417 4C6.95604 4 6.97799 4 7 4L17.0658 4C17.9523 3.99995 18.7161 3.99991 19.3278 4.08215C19.9833 4.17028 20.6117 4.36902 21.1213 4.87868C21.631 5.38835 21.8297 6.0167 21.9179 6.67221C22.0001 7.28388 22.0001 8.0477 22 8.9342V15.0658C22.0001 15.9523 22.0001 16.7161 21.9179 17.3278C21.8297 17.9833 21.631 18.6117 21.1213 19.1213C20.6117 19.631 19.9833 19.8297 19.3278 19.9179C18.7161 20.0001 17.9523 20.0001 17.0658 20H6.93417C6.04769 20.0001 5.28387 20.0001 4.67221 19.9179C4.0167 19.8297 3.38835 19.631 2.87868 19.1213C2.36902 18.6117 2.17028 17.9833 2.08215 17.3278C1.99991 16.7161 1.99995 15.9523 2 15.0658L2 9C2 8.97799 2 8.95604 2 8.93417C1.99995 8.04769 1.99991 7.28387 2.08215 6.67221C2.17028 6.0167 2.36902 5.38835 2.87868 4.87868C3.38835 4.36902 4.0167 4.17028 4.67221 4.08215C5.28387 3.99991 6.04769 3.99995 6.93417 4ZM4.93871 6.06431C4.50497 6.12263 4.36902 6.21677 4.2929 6.2929C4.21677 6.36902 4.12263 6.50497 4.06431 6.93871C4.00213 7.40121 4 8.02893 4 9V15C4 15.9711 4.00213 16.5988 4.06431 17.0613C4.12263 17.495 4.21677 17.631 4.2929 17.7071C4.36902 17.7832 4.50497 17.8774 4.93871 17.9357C5.40121 17.9979 6.02893 18 7 18H17C17.9711 18 18.5988 17.9979 19.0613 17.9357C19.495 17.8774 19.631 17.7832 19.7071 17.7071C19.7832 17.631 19.8774 17.495 19.9357 17.0613C19.9979 16.5988 20 15.9711 20 15V9C20 8.02893 19.9979 7.40122 19.9357 6.93871C19.8774 6.50497 19.7832 6.36902 19.7071 6.2929C19.631 6.21677 19.495 6.12263 19.0613 6.06431C18.5988 6.00213 17.9711 6 17 6H7C6.02893 6 5.40122 6.00213 4.93871 6.06431Z" fill="white"/>
<path fill-rule="evenodd" clip-rule="evenodd" d="M11.7692 4.5C12.0454 4.5 12.2692 4.72386 12.2692 5V9.5H21C21.2761 9.5 21.5 9.72386 21.5 10C21.5 10.2761 21.2761 10.5 21 10.5H12.2692V13.5H21C21.2761 13.5 21.5 13.7239 21.5 14C21.5 14.2761 21.2761 14.5 21 14.5H12.2692V19C12.2692 19.2761 12.0454 19.5 11.7692 19.5C11.4931 19.5 11.2692 19.2761 11.2692 19V14.5H3C2.72386 14.5 2.5 14.2761 2.5 14C2.5 13.7239 2.72386 13.5 3 13.5H11.2692V10.5H3C2.72386 10.5 2.5 10.2761 2.5 10C2.5 9.72386 2.72386 9.5 3 9.5H11.2692V5C11.2692 4.72386 11.4931 4.5 11.7692 4.5Z" fill="white"/>
</svg>

<svg width="24" height="24" fill="none" xmlns="http://www.w3.org/2000/svg"><path fill-rule="evenodd" clip-rule="evenodd" d="M6.934 4H17.066c.886 0 1.65 0 2.262.082.655.088 1.284.287 1.793.797.51.51.709 1.138.797 1.793C22 7.284 22 8.048 22 8.934v6.132c0 .886 0 1.65-.082 2.262-.088.655-.287 1.284-.797 1.793-.51.51-1.138.709-1.793.797-.612.082-1.376.082-2.262.082H6.934c-.886 0-1.65 0-2.262-.082-.655-.088-1.284-.287-1.793-.797-.51-.51-.709-1.138-.797-1.793C2 16.716 2 15.952 2 15.066V9v-.066c0-.886 0-1.65.082-2.262.088-.655.287-1.284.797-1.793.51-.51 1.138-.709 1.793-.797C5.284 4 6.048 4 6.934 4zM4.94 6.064c-.434.059-.57.153-.646.229-.076.076-.17.212-.229.646C4.002 7.4 4 8.029 4 9v6c0 .971.002 1.599.064 2.061.059.434.153.57.229.646.076.076.212.17.646.229C5.4 17.998 6.029 18 7 18h10c.971 0 1.599-.002 2.061-.064.434-.059.57-.153.646-.229.076-.076.17-.212.229-.646.062-.462.064-1.09.064-2.061V9c0-.971-.002-1.599-.064-2.061-.059-.434-.153-.57-.229-.646-.076-.076-.212-.17-.646-.229C18.6 6.002 17.971 6 17 6H7c-.971 0-1.599.002-2.061.064z" fill="#fff"/><path fill-rule="evenodd" clip-rule="evenodd" d="M11.77 4.5a.5.5 0 0 1 .5.5v4.5H21a.5.5 0 0 1 0 1h-8.73v3H21a.5.5 0 0 1 0 1h-8.73V19a.5.5 0 1 1-1 0v-4.5H3a.5.5 0 0 1 0-1h8.27v-3H3a.5.5 0 0 1 0-1h8.27V5a.5.5 0 0 1 .5-.5z" fill="#fff"/></svg>
